X:1
T:Sadlers Wells
C:Traditional
M:6/4
L:1/4
Q:1/4=120
K:Em
d|eBg fBa|gfe d2B|eBd GcB|GA2 B2c|dBf f^cd|e^cB A2F|Bge fbB|Fd^A B3:|
